build/img/svg-sprite/client.svg

<svg width="89" height="89" viewBox="0 0 89 89" fill="none" xmlns="http://www.w3.org/2000/svg">
<path d="M78.5216 41.2425C75.4932 39.7285 69.8151 39.7109 69.5749 39.7109C68.8549 39.7109 68.2711 40.2947 68.2711 41.0146C68.2711 41.7346 68.8549 42.3184 69.5749 42.3184C71.0401 42.3185 75.2942 42.5442 77.3556 43.5748C77.5428 43.6685 77.7416 43.7126 77.9376 43.7126C78.4158 43.7126 78.8762 43.4484 79.1046 42.9918C79.4267 42.3477 79.1657 41.5646 78.5216 41.2425Z" fill="#EF8B54"/>
<path d="M85.0214 59.804L79.6371 58.2656C79.4047 58.1992 79.2423 57.984 79.2423 57.7422V55.945C79.6804 55.6415 80.0983 55.3018 80.4889 54.9227C82.3818 53.0857 83.4243 50.6217 83.4243 47.9844V45.5044L83.9449 44.4633C84.5163 43.3204 84.8182 42.0409 84.8182 40.7632V34.0448C84.8182 33.3248 84.2345 32.741 83.5145 32.741H70.9688C66.4069 32.741 62.6953 36.4526 62.6953 41.0146V41.0923C62.6953 42.1547 62.9465 43.2187 63.4215 44.1689L64.0892 45.5042V47.6336C64.0892 51.0083 65.7522 54.0362 68.2712 55.8583L68.2715 57.7419C68.2715 58.0323 68.2715 58.1526 67.195 58.4603L64.5678 59.2109L56.9678 56.4474C56.9951 56.0888 56.8741 55.7241 56.6125 55.4493L54.184 52.8978V48.6147C54.4407 48.4031 54.6938 48.1858 54.9391 47.956C58.0028 45.0844 59.7598 41.03 59.7598 36.8326V33.412C60.685 31.3989 61.1538 29.2687 61.1538 27.0748V13.1355C61.1538 12.4155 60.5701 11.8318 59.8501 11.8318H40.3346C33.4666 11.8318 27.8792 17.4193 27.8792 24.2871V27.0751C27.8792 29.269 28.3481 31.3993 29.2732 33.4124V36.3555C29.2732 41.2289 31.4401 45.6195 34.8491 48.514V52.898L32.4205 55.4494C32.1589 55.7243 32.0379 56.0889 32.0652 56.4476L24.0439 59.3642C23.4626 59.5756 22.9225 59.8619 22.4322 60.2087L21.1726 59.5789C24.9221 57.9468 26.1099 55.6514 26.1669 55.5374C26.3504 55.1704 26.3504 54.7383 26.1669 54.3713C25.227 52.4916 25.1131 49.0461 25.0217 46.2777C24.9913 45.3561 24.9624 44.4854 24.9073 43.7101C24.4628 37.4568 19.709 32.741 13.8492 32.741C7.98949 32.741 3.23546 37.4567 2.79116 43.7101C2.73605 44.4856 2.7072 45.3563 2.67678 46.2781C2.58535 49.0463 2.47131 52.4914 1.5316 54.3712C1.34804 54.7381 1.34804 55.1703 1.5316 55.5372C1.58862 55.6512 2.77395 57.942 6.5309 59.5759L3.03226 61.3252C1.16187 62.2611 0 64.141 0 66.232V75.8636C0 76.5836 0.583715 77.1673 1.30371 77.1673C2.02371 77.1673 2.60742 76.5836 2.60742 75.8636V66.232C2.60742 65.1348 3.21704 64.1483 4.1983 63.6576L8.55495 61.4794L10.0704 62.9195C11.13 63.9265 12.4894 64.4297 13.8492 64.4297C15.2087 64.4297 16.5688 63.9262 17.6281 62.9195L19.1433 61.4795L20.5639 62.1898C19.895 63.26 19.5153 64.5151 19.5153 65.8298V75.864C19.5153 76.584 20.0991 77.1677 20.819 77.1677C21.539 77.1677 22.1228 76.584 22.1228 75.864V65.8298C22.1228 64.04 23.2528 62.4265 24.9349 61.8148L33.392 58.7396L36.9126 64.0207C37.3626 64.6959 38.0838 65.1289 38.8913 65.2088C38.9813 65.2177 39.0708 65.222 39.1602 65.222C39.8725 65.222 40.5548 64.9417 41.0648 64.4318L43.2126 62.284V75.8642C43.2126 76.5841 43.7963 77.1679 44.5163 77.1679C45.2363 77.1679 45.82 76.5841 45.82 75.8642V62.284L47.9679 64.4318C48.4777 64.9418 49.16 65.2222 49.8725 65.2222C49.9617 65.2222 50.0514 65.2179 50.1412 65.209C50.9488 65.1291 51.6701 64.696 52.1201 64.0209L55.6408 58.74L64.0977 61.8152C65.7797 62.4269 66.9099 64.0404 66.9099 65.8301V75.8643C66.9099 76.5843 67.4936 77.168 68.2136 77.168C68.9336 77.168 69.5173 76.5843 69.5173 75.8643V65.8301C69.5173 64.0174 68.7972 62.3174 67.5891 61.0601L67.9112 60.9681C68.2361 60.8753 68.6793 60.7482 69.1243 60.5301L72.453 63.8587V75.8643C72.453 76.5843 73.0367 77.168 73.7567 77.168C74.4767 77.168 75.0604 76.5843 75.0604 75.8643V63.8587L78.3659 60.5532C78.5416 60.6425 78.7262 60.718 78.9206 60.7734L84.3051 62.3118C85.534 62.6629 86.3926 63.801 86.3926 65.0793V75.8643C86.3926 76.5843 86.9763 77.168 87.6963 77.168C88.4163 77.168 89 76.5843 89 75.8643V65.0793C89 62.6426 87.3639 60.4734 85.0214 59.804ZM8.36374 57.5013C5.92511 56.6238 4.70188 55.4539 4.1797 54.8151C4.5357 53.8845 4.76654 52.8185 4.92281 51.6934C5.64177 53.4172 6.84587 54.8888 8.36374 55.9388V57.5013ZM15.8323 61.0297C14.7203 62.0862 12.9784 62.086 11.8667 61.0295L10.6543 59.8774C10.8589 59.4941 10.9713 59.0595 10.9713 58.6042V57.2147C11.8808 57.4989 12.8476 57.6522 13.8496 57.6522C14.8503 57.6522 15.8166 57.4982 16.7277 57.2155L16.7275 58.6041C16.7275 59.0595 16.8398 59.4942 17.0445 59.8777L15.8323 61.0297ZM13.8499 55.0448C9.95688 55.0448 6.7899 51.8776 6.7899 47.9847C6.7899 47.2647 6.20619 46.681 5.48619 46.681C5.41318 46.681 5.34191 46.6885 5.27221 46.7001C5.27603 46.588 5.27968 46.4757 5.28351 46.3647C5.31254 45.4682 5.34052 44.6215 5.39215 43.8952C5.55868 41.5527 6.49474 39.3941 8.0279 37.8168C9.5748 36.2253 11.6423 35.3488 13.8496 35.3488C16.0569 35.3488 18.1242 36.2253 19.6713 37.8168C21.2044 39.3941 22.1405 41.5527 22.307 43.8952C22.3585 44.6213 22.3866 45.4679 22.4162 46.3641C22.4188 46.4411 22.4214 46.5192 22.424 46.5967C21.0056 44.4113 18.815 42.8008 15.9845 41.8914C13.3696 41.0513 11.1207 41.1032 11.0257 41.1057C10.6843 41.1152 10.3603 41.2581 10.1234 41.5039L7.77116 43.9434C7.2714 44.4618 7.28635 45.2871 7.80471 45.7868C8.32306 46.2866 9.1484 46.2715 9.64816 45.7533L11.6055 43.7235C13.2911 43.8059 18.714 44.4366 20.823 49.0807C20.2923 52.503 17.3508 55.0448 13.8499 55.0448ZM19.3347 57.5056L19.3349 55.9507C20.8516 54.9066 22.0574 53.4377 22.7769 51.7008C22.9331 52.8234 23.1638 53.8869 23.5191 54.8155C22.9999 55.4482 21.7709 56.6285 19.3347 57.5056ZM31.8806 36.3553V33.1207C31.8806 32.9244 31.8363 32.7306 31.7509 32.5538C30.912 30.8166 30.4867 28.9733 30.4867 27.0751V24.2873C30.4867 18.857 34.9045 14.4394 40.3346 14.4394H58.5464V27.0753C58.5464 28.9735 58.121 30.8168 57.2821 32.554C57.1968 32.7308 57.1524 32.9246 57.1524 33.1209V36.833C57.1524 40.3636 55.7331 43.6383 53.1559 46.054C52.8342 46.3554 52.5003 46.6381 52.155 46.9014C52.1474 46.9066 52.1401 46.9124 52.1326 46.9178C49.7183 48.7508 46.7612 49.6417 43.6729 49.4416C37.0603 49.0134 31.8806 43.2653 31.8806 36.3553ZM39.2212 62.5879C39.2122 62.5969 39.1911 62.6183 39.1485 62.6138C39.1061 62.6096 39.0894 62.5847 39.0823 62.574L35.0278 56.4921L36.3325 55.1211L42.4834 59.3254L39.2212 62.5879ZM44.5165 57.5568L37.4565 52.7309V50.2973C39.2832 51.2849 41.3287 51.9025 43.5041 52.0433C43.8478 52.0655 44.1894 52.0765 44.5299 52.0765C47.0228 52.0765 49.4219 51.4806 51.5765 50.3495V52.7309L44.5165 57.5568ZM49.9507 62.5743C49.9436 62.5851 49.9269 62.6099 49.8845 62.6141C49.8419 62.6195 49.8211 62.5971 49.8118 62.5882L46.5496 59.326L52.7005 55.1214L54.0054 56.4924L49.9507 62.5743ZM73.7567 61.4743L70.7981 58.5159C70.8497 58.2814 70.8789 58.0247 70.8788 57.7415L70.8786 57.1914C71.6996 57.4608 72.5649 57.6207 73.4603 57.6475C73.5608 57.6506 73.6604 57.652 73.7605 57.652C74.7499 57.652 75.7157 57.5025 76.6349 57.2173V57.7422C76.6349 58.0023 76.6676 58.2571 76.7291 58.502L73.7567 61.4743ZM78.673 53.0516C77.2913 54.3926 75.4659 55.1007 73.5387 55.0413C69.7659 54.9281 66.6966 51.605 66.6966 47.6339V45.1967C66.6966 44.9942 66.6495 44.7946 66.559 44.6137L65.7536 43.003C65.4586 42.4128 65.3027 41.7523 65.3027 41.0924V41.0147C65.3027 37.8904 67.8446 35.3486 70.9688 35.3486H82.2108V40.7634C82.2108 41.6384 82.0039 42.5147 81.6127 43.2975L80.9545 44.6137C80.864 44.7948 80.8169 44.9942 80.8169 45.1967V47.9846C80.8169 49.9106 80.0555 51.71 78.673 53.0516Z" fill="#EF8B54"/>
<path d="M82.1206 66.1963C81.4006 66.1963 80.8169 66.78 80.8169 67.5V75.8637C80.8169 76.5837 81.4006 77.1675 82.1206 77.1675C82.8406 77.1675 83.4243 76.5837 83.4243 75.8637V67.5C83.4243 66.7802 82.8406 66.1963 82.1206 66.1963Z" fill="#EF8B54"/>
<path d="M6.87955 67.9194C6.15955 67.9194 5.57584 68.5031 5.57584 69.2231V75.8636C5.57584 76.5836 6.15955 77.1673 6.87955 77.1673C7.59955 77.1673 8.18326 76.5836 8.18326 75.8636V69.2231C8.18326 68.5033 7.59955 67.9194 6.87955 67.9194Z" fill="#EF8B54"/>
<path d="M55.196 27.5474C50.2652 22.6165 39.9487 23.5592 35.7417 24.1933C34.4166 24.3931 33.455 25.5144 33.455 26.8597V29.8631C33.455 30.5831 34.0387 31.1668 34.7587 31.1668C35.4787 31.1668 36.0624 30.5831 36.0624 29.8631V26.8595C36.0624 26.8152 36.0916 26.7773 36.1305 26.7714C37.8109 26.5181 41.1455 26.1274 44.6003 26.3577C48.6658 26.6283 51.6104 27.6489 53.3524 29.391C53.8615 29.9001 54.687 29.9001 55.196 29.391C55.7051 28.8818 55.7051 28.0563 55.196 27.5474Z" fill="#EF8B54"/>
<path d="M29.1828 68.9841C28.4628 68.9841 27.8791 69.5678 27.8791 70.2878V75.8637C27.8791 76.5837 28.4628 77.1674 29.1828 77.1674C29.9028 77.1674 30.4866 76.5837 30.4866 75.8637V70.2878C30.4866 69.568 29.9028 68.9841 29.1828 68.9841Z" fill="#EF8B54"/>
<path d="M59.8501 68.9841C59.13 68.9841 58.5463 69.5678 58.5463 70.2878V75.8637C58.5463 76.5837 59.13 77.1674 59.8501 77.1674C60.5701 77.1674 61.1538 76.5837 61.1538 75.8637V70.2878C61.1538 69.568 60.5701 68.9841 59.8501 68.9841Z" fill="#EF8B54"/>
</svg>

<svg width="89" height="89" viewBox="0 0 89 89" fill="none" xmlns="http://www.w3.org/2000/svg"><path d="M78.522 41.242c-3.029-1.514-8.707-1.531-8.947-1.531a1.304 1.304 0 000 2.607c1.465 0 5.72.226 7.78 1.257a1.304 1.304 0 101.166-2.332z" fill="#EF8B54"/><path d="M85.021 59.804l-5.384-1.538a.547.547 0 01-.395-.524v-1.797a9.797 9.797 0 001.247-1.022 9.591 9.591 0 002.935-6.939v-2.48l.52-1.04a8.316 8.316 0 00.874-3.7v-6.72c0-.72-.584-1.303-1.303-1.303H70.969c-4.562 0-8.274 3.712-8.274 8.274v.077c0 1.063.252 2.127.727 3.077l.667 1.335v2.13c0 3.374 1.663 6.402 4.182 8.224v1.884c0 .29 0 .41-1.076.718l-2.627.75-7.6-2.763a1.302 1.302 0 00-.356-.998l-2.428-2.551v-4.283c.257-.212.51-.43.755-.659a15.301 15.301 0 004.82-11.123v-3.421a15.068 15.068 0 001.395-6.337v-13.94c0-.72-.584-1.303-1.304-1.303H40.335c-6.868 0-12.456 5.587-12.456 12.455v2.788c0 2.194.47 4.324 1.394 6.337v2.944c0 4.873 2.167 9.264 5.576 12.158v4.384l-2.428 2.551c-.262.275-.383.64-.356.999l-8.021 2.916a6.835 6.835 0 00-1.612.845l-1.26-.63c3.75-1.632 4.938-3.928 4.995-4.042a1.307 1.307 0 000-1.166c-.94-1.88-1.054-5.325-1.145-8.093a70.48 70.48 0 00-.115-2.568c-.444-6.253-5.198-10.969-11.058-10.969-5.86 0-10.614 4.716-11.058 10.97a70.53 70.53 0 00-.114 2.567c-.092 2.768-.206 6.213-1.145 8.093a1.3 1.3 0 000 1.166c.057.114 1.242 2.405 4.999 4.039l-3.499 1.75A5.457 5.457 0 000 66.231v9.632a1.304 1.304 0 002.607 0v-9.632c0-1.097.61-2.084 1.591-2.574l4.357-2.179 1.515 1.44a5.47 5.47 0 003.78 1.51 5.468 5.468 0 003.778-1.51l1.515-1.44 1.42.71a6.865 6.865 0 00-1.048 3.64v10.035a1.304 1.304 0 002.608 0V65.83c0-1.79 1.13-3.404 2.812-4.015l8.457-3.075 3.52 5.28a2.687 2.687 0 002.248 1.202c.713 0 1.395-.28 1.905-.79l2.148-2.148v13.58a1.304 1.304 0 002.607 0v-13.58l2.148 2.148a2.686 2.686 0 002.173.777 2.688 2.688 0 001.98-1.188l3.52-5.281 8.457 3.075a4.285 4.285 0 012.812 4.015v10.034a1.304 1.304 0 002.607 0V65.83c0-1.813-.72-3.513-1.928-4.77l.322-.092a7.15 7.15 0 001.213-.438l3.329 3.329v12.005a1.304 1.304 0 002.607 0V63.86l3.306-3.306c.176.09.36.165.555.22l5.384 1.539a2.89 2.89 0 012.088 2.767v10.785a1.304 1.304 0 002.607 0V65.08a5.51 5.51 0 00-3.979-5.275zM8.364 57.501c-2.439-.877-3.662-2.047-4.184-2.686.356-.93.587-1.996.743-3.122a9.722 9.722 0 003.44 4.246V57.5zm7.468 3.529a2.877 2.877 0 01-3.965 0l-1.213-1.153c.205-.383.317-.818.317-1.273v-1.39a9.696 9.696 0 005.756 0v1.39c0 .456.113.89.317 1.274l-1.212 1.152zm-1.982-5.985a7.068 7.068 0 01-7.06-7.06A1.304 1.304 0 005.272 46.7l.012-.335a69.01 69.01 0 01.108-2.47c.167-2.342 1.103-4.5 2.636-6.078a8.058 8.058 0 015.822-2.468c2.207 0 4.274.876 5.821 2.468 1.533 1.577 2.47 3.736 2.636 6.078.052.726.08 1.573.11 2.47l.007.232c-1.418-2.186-3.609-3.796-6.44-4.706-2.614-.84-4.863-.788-4.958-.785-.342.01-.666.152-.903.398l-2.352 2.44a1.304 1.304 0 101.877 1.81l1.957-2.03c1.686.082 7.109.713 9.218 5.357a7.043 7.043 0 01-6.973 5.964zm5.485 2.46v-1.554a9.643 9.643 0 003.442-4.25c.156 1.122.387 2.186.742 3.114-.52.633-1.748 1.814-4.184 2.69zm12.546-21.15v-3.234c0-.197-.045-.39-.13-.567a12.505 12.505 0 01-1.264-5.479v-2.788c0-5.43 4.418-9.848 9.848-9.848h18.211v12.636c0 1.899-.425 3.742-1.264 5.479-.085.177-.13.37-.13.567v3.712c0 3.53-1.419 6.805-3.996 9.221-.322.301-.656.584-1.001.847l-.022.017c-2.415 1.833-5.372 2.724-8.46 2.524-6.613-.429-11.792-6.177-11.792-13.087zm7.34 26.233a.083.083 0 01-.072.026.083.083 0 01-.067-.04l-4.054-6.082 1.305-1.37 6.15 4.203-3.262 3.263zm5.296-5.031l-7.06-4.826v-2.434a14.678 14.678 0 007.073 1.78 15.1 15.1 0 007.047-1.727v2.38l-7.06 4.827zm5.434 5.017a.083.083 0 01-.066.04c-.043.006-.064-.017-.073-.026l-3.262-3.262 6.15-4.205 1.305 1.371-4.054 6.082zm23.806-1.1l-2.959-2.958c.052-.235.08-.491.08-.774v-.55a9.144 9.144 0 002.882.46c.99 0 1.956-.15 2.875-.435v.525c0 .26.033.515.094.76l-2.972 2.972zm4.916-8.422a7.007 7.007 0 01-5.134 1.99c-3.773-.114-6.842-3.437-6.842-7.408v-2.437c0-.203-.047-.402-.138-.583l-.805-1.611a4.295 4.295 0 01-.451-1.91v-.078a5.673 5.673 0 015.666-5.666H82.21v5.414c0 .875-.207 1.752-.598 2.535l-.659 1.316c-.09.18-.137.38-.137.583v2.788a7.004 7.004 0 01-2.144 5.067z" fill="#EF8B54"/><path d="M82.12 66.196c-.72 0-1.303.584-1.303 1.304v8.364a1.304 1.304 0 002.607 0V67.5c0-.72-.583-1.304-1.303-1.304zM6.88 67.92c-.72 0-1.304.583-1.304 1.303v6.64a1.304 1.304 0 002.607 0v-6.64c0-.72-.583-1.304-1.303-1.304zm48.316-40.373c-4.93-4.93-15.247-3.988-19.454-3.354a2.677 2.677 0 00-2.287 2.667v3.003a1.304 1.304 0 002.607 0V26.86c0-.045.03-.083.069-.089 1.68-.253 5.014-.644 8.47-.413 4.065.27 7.01 1.29 8.751 3.033a1.304 1.304 0 101.844-1.844zM29.183 68.984c-.72 0-1.304.584-1.304 1.304v5.576a1.304 1.304 0 002.608 0v-5.576c0-.72-.584-1.304-1.304-1.304zm30.667 0c-.72 0-1.304.584-1.304 1.304v5.576a1.304 1.304 0 002.608 0v-5.576c0-.72-.584-1.304-1.304-1.304z" fill="#EF8B54"/></svg>
